X: 35985
T: Sarsfield's March
R: polka
M: 2/4
K: Gmajor
EF||G2 G2|G2 G2|AG AB|cB AB|
G2 G2|GB dg|fd cA|B2 BA|
G2 ED|G2 ED|AG AB|cB AB|
cd ef|g2 dc|B2 G2|G2:|
d||de fg|fe dB|de fg|e2 dB|
de ge|dB AG|B2 A2|A2 AB|
c2 cd|ef g2|B2 AG|G3 G|
ce ge|dB AG|A2 G2|G3:|

